cy/filter-grid-circle-line.svg

<svg viewBox="0 0 36 36" xmlns="http://www.w3.org/2000/svg" height="1em" width="1em">
  <path class="clr-i-outline clr-i-outline-path-1" d="m15 25.86 2 1v-6.59a1 1 0 0 0-.29-.7L10.23 13h15.56l-6.47 6.57a1 1 0 0 0-.29.7L19 28l2 1v-8.32L27.58 14a1.46 1.46 0 0 0 .42-1v-1a1 1 0 0 0-1-1H9a1 1 0 0 0-1 1v1a1.46 1.46 0 0 0 .42 1L15 20.68Z"/>
  <path class="clr-i-outline clr-i-outline-path-2" d="M18 2a16 16 0 1 0 16 16A16 16 0 0 0 18 2Zm0 30a14 14 0 1 1 14-14 14 14 0 0 1-14 14Z"/>
  <path fill="none" d="M0 0h36v36H0z"/>
</svg>

<svg version="1.1" viewBox="0 0 36 36" preserveAspectRatio="xMidYMid meet" xmlns="http://www.w3.org/2000/svg" height="1em" width="1em">
  <path class="clr-i-outline clr-i-outline-path-1" d="M15,25.86l2,1V20.27a1,1,0,0,0-.29-.7L10.23,13H25.79l-6.47,6.57a1,1,0,0,0-.29.7L19,28l2,1V20.68L27.58,14A1.46,1.46,0,0,0,28,13V12a1,1,0,0,0-1-1H9a1,1,0,0,0-1,1v1a1.46,1.46,0,0,0,.42,1L15,20.68Z"/>
  <path class="clr-i-outline clr-i-outline-path-2" d="M18,2A16,16,0,1,0,34,18,16,16,0,0,0,18,2Zm0,30A14,14,0,1,1,32,18,14,14,0,0,1,18,32Z"/>
  <rect x="0" y="0" width="36" height="36" fill-opacity="0"/>
</svg>
